src/assets/Logo-AMC.svg

<svg width="43" height="26" viewBox="0 0 43 26" fill="none" xmlns="http://www.w3.org/2000/svg">
<path d="M20.6361 0.0703125L15.8555 9.75978L17.8064 19.1668L22.4009 10.9416L20.6361 0.0703125Z" fill="#FBBA01"/>
<path d="M5.49096 26L0 0H6.34968L8.6963 11.4122L13.9417 0L20.6365 0.0760816L7.86206 26H5.49096Z" fill="#FB0200"/>
<path d="M27.7492 0L22.3658 10.9557L17.8105 19.1726L19.347 26H21.2189L30.2483 8.02392L27.7492 0Z" fill="#32AB15"/>
<path d="M31.333 10.4993L30.2432 8.02392L26.4062 15.6746L28.3895 26H30.3238L42.9281 0H36.8545L31.333 10.4993Z" fill="#4184ED"/>
</svg>

<svg xmlns="http://www.w3.org/2000/svg" width="43" height="26" fill="none" viewBox="0 0 43 26"><path fill="#fbba01" d="m20.636.07-4.78 9.69 1.95 9.407 4.595-8.225z"/><path fill="#fb0200" d="M5.491 26 0 0h6.35l2.346 11.412L13.942 0l6.695.076L7.862 26z"/><path fill="#32ab15" d="m27.75 0-5.384 10.956-4.555 8.217L19.347 26h1.872l9.03-17.976z"/><path fill="#4184ed" d="m31.333 10.5-1.09-2.476-3.837 7.65L28.39 26h1.934L42.928 0h-6.073z"/></svg>
